static/icons/edit_square.svg

<svg xmlns="http://www.w3.org/2000/svg" fill="none" viewBox="0 0 719 724"><path stroke="#000" stroke-linecap="round" stroke-width="50" d="M691 358c0-156.978 0-235.467-48.768-284.233C593.468 25 514.976 25 358 25c-156.978 0-235.467 0-284.233 48.767C25 122.533 25 201.022 25 358c0 156.976 0 235.468 48.767 284.232C122.533 691 201.022 691 358 691h156M283 353h172M372 444V272"/><path fill="red" d="m556.79 623.045 55.327-206.482c.761-2.839 1.666-6.354 2.945-9.213 1.447-3.237 4.15-7.526 9.942-10.228l.272-.124c5.704-2.569 11.483-2.292 15.568-1.677 3.667.552 7.836 1.7 11.219 2.607l16.794 4.5 16.795 4.5c3.382.906 7.566 1.996 11.018 3.352 3.845 1.51 8.989 4.159 12.644 9.236l.173.244.17.245c3.501 5.149 3.686 10.112 3.327 13.583-.322 3.116-1.296 6.613-2.057 9.452l-55.326 206.482c-.22.82-.737 3.021-1.849 5.113-1.112 2.091-2.684 3.818-3.253 4.481l-26.173 30.501c-4.68 5.453-9.21 10.793-13.384 14.366-3.634 3.109-12.048 9.36-24.245 6.224l-.289-.076c-12.353-3.31-16.568-13.046-18.172-17.591-1.829-5.182-3.082-12.071-4.408-19.134l-7.417-39.501c-.161-.859-.659-3.139-.576-5.507.072-2.071.581-3.988.855-4.984l.1-.369Zm128.862-216.117-16.795-4.5-16.794-4.5 33.589 9Z"/></svg>

<svg width="719" height="724" viewBox="0 0 719 724" fill="none" xmlns="http://www.w3.org/2000/svg">
<path d="M691 358C691 201.022 691 122.533 642.232 73.7668C593.468 25 514.976 25 358 25C201.022 25 122.533 25 73.7668 73.7668C25 122.533 25 201.022 25 358C25 514.976 25 593.468 73.7668 642.232C122.533 691 201.022 691 358 691H514" stroke="black" stroke-width="50" stroke-linecap="round"/>
<line x1="283" y1="353" x2="455" y2="353" stroke="black" stroke-width="50" stroke-linecap="round"/>
<line x1="372" y1="444" x2="372" y2="272" stroke="black" stroke-width="50" stroke-linecap="round"/>
<path d="M556.79 623.045L612.117 416.563C612.878 413.724 613.783 410.209 615.062 407.35C616.509 404.113 619.212 399.824 625.004 397.122L625.276 396.998C630.98 394.429 636.759 394.706 640.844 395.321C644.511 395.873 648.68 397.021 652.063 397.928L668.857 402.428L685.652 406.928C689.034 407.834 693.218 408.924 696.67 410.28C700.515 411.79 705.659 414.439 709.314 419.516L709.487 419.76L709.657 420.005C713.158 425.154 713.343 430.117 712.984 433.588C712.662 436.704 711.688 440.201 710.927 443.04L655.601 649.522C655.381 650.342 654.864 652.543 653.752 654.635C652.64 656.726 651.068 658.453 650.499 659.116L624.326 689.617C619.646 695.07 615.116 700.41 610.942 703.983C607.308 707.092 598.894 713.343 586.697 710.207L586.408 710.131C574.055 706.821 569.84 697.085 568.236 692.54C566.407 687.358 565.154 680.469 563.828 673.406L556.411 633.905C556.25 633.046 555.752 630.766 555.835 628.398C555.907 626.327 556.416 624.41 556.69 623.414L556.79 623.045ZM685.652 406.928L668.857 402.428L652.063 397.928L685.652 406.928Z" fill="#FF0000"/>
</svg>
